X:177
T:Kilfodda
Z: id:dc-reel-163
M:C
L:1/8
K:F Major
ddc|AdcA GcAG|FAGF DGFD|CA,A,2 CDFG|AFF2 GABG|!
AdcA G2AG|F2GF DGFD|CA,A,2 CDFG|AcGE F:|!
GAB|c2Ac BAGE|F2AF GFDF|CFF2 dFcF|BAGF EFGA|!
BABd cAGF|dcde fcAF|CFAF DFBd|cAGA F:|!

